src/assets/svg/logo.svg

<svg width="277" height="60" viewBox="0 0 277 60" fill="none" xmlns="http://www.w3.org/2000/svg">
<path d="M54.7625 13.0592C49.3571 5.1733 40.2827 0 30 0C13.4315 0 0 13.4314 0 30C0 32.4105 0.2843 34.7545 0.821171 37.0005L16.0983 21.7233C17.5628 20.2589 19.9372 20.2589 21.4017 21.7233L33.75 34.0717L54.7625 13.0592Z" fill="#EF2A82"/>
<path d="M58.3281 20.1002L36.4017 42.0267C34.9372 43.4911 32.5628 43.4911 31.0983 42.0267L18.75 29.6783L3.80127 44.627C8.93324 53.7993 18.7425 60 30 60C46.5686 60 60 46.5686 60 30C60 26.531 59.4112 23.1996 58.3281 20.1002Z" fill="#EF2A82"/>
<path d="M94.2124 37.584H86.4032L85.0394 42H78.9512L87.6208 18.3613H92.9785L101.713 42H95.5924L94.2124 37.584ZM87.767 33.1842H92.8486L90.2997 24.9854L87.767 33.1842Z" fill="white"/>
<path d="M123.193 42H117.526L109.149 27.2908V42H103.45V18.3613H109.149L117.51 33.0706V18.3613H123.193V42Z" fill="white"/>
<path d="M140.516 37.584H132.706L131.343 42H125.254L133.924 18.3613H139.282L148.016 42H141.896L140.516 37.584ZM134.07 33.1842H139.152L136.603 24.9854L134.07 33.1842Z" fill="white"/>
<path d="M155.452 37.6165H165.372V42H149.754V18.3613H155.452V37.6165Z" fill="white"/>
<path d="M171.882 28.6221L176.233 18.3613H182.387L174.772 33.5089V42H168.992V33.5089L161.394 18.3613H167.515L171.882 28.6221Z" fill="white"/>
<path d="M202.957 22.7611H195.862V42H190.163V22.7611H183.198V18.3613H202.957V22.7611Z" fill="white"/>
<path d="M211.448 42H205.766V18.3613H211.448V42Z" fill="white"/>
<path d="M234.535 33.996C234.459 35.6412 234.015 37.0969 233.203 38.3633C232.391 39.6188 231.25 40.5929 229.778 41.2856C228.316 41.9784 226.644 42.3247 224.761 42.3247C221.654 42.3247 219.208 41.3127 217.422 39.2887C215.637 37.2647 214.744 34.4073 214.744 30.7164V29.5475C214.744 27.2312 215.144 25.2072 215.945 23.4755C216.757 21.7329 217.92 20.3907 219.436 19.4491C220.951 18.4966 222.704 18.0204 224.696 18.0204C227.564 18.0204 229.87 18.778 231.612 20.2933C233.355 21.7978 234.345 23.8759 234.583 26.5277H228.901C228.858 25.0882 228.495 24.0545 227.813 23.4268C227.131 22.799 226.092 22.4851 224.696 22.4851C223.278 22.4851 222.239 23.0155 221.579 24.0762C220.919 25.1369 220.572 26.8308 220.54 29.1578V30.8301C220.54 33.352 220.854 35.1541 221.481 36.2365C222.12 37.3188 223.213 37.86 224.761 37.86C226.071 37.86 227.072 37.5515 227.764 36.9346C228.457 36.3176 228.825 35.3381 228.868 33.996H234.535Z" fill="white"/>
<path d="M249.422 35.7169C249.422 34.8835 249.125 34.2341 248.529 33.7687C247.945 33.3033 246.911 32.8216 245.428 32.3237C243.946 31.8258 242.733 31.3442 241.792 30.8788C238.729 29.3743 237.197 27.307 237.197 24.6769C237.197 23.3672 237.576 22.2145 238.334 21.2188C239.102 20.2122 240.184 19.4329 241.581 18.8809C242.977 18.318 244.546 18.0366 246.289 18.0366C247.988 18.0366 249.509 18.3397 250.851 18.9458C252.204 19.5519 253.254 20.4178 254.001 21.5435C254.748 22.6583 255.121 23.9355 255.121 25.375H249.439C249.439 24.4117 249.141 23.6649 248.546 23.1345C247.961 22.6042 247.166 22.339 246.159 22.339C245.142 22.339 244.335 22.5663 243.74 23.0209C243.156 23.4646 242.863 24.0329 242.863 24.7256C242.863 25.3317 243.188 25.8837 243.837 26.3816C244.487 26.8687 245.629 27.3774 247.263 27.9077C248.897 28.4272 250.24 28.9901 251.289 29.5962C253.844 31.0682 255.121 33.0976 255.121 35.6844C255.121 37.7517 254.342 39.3753 252.783 40.5551C251.224 41.7348 249.087 42.3247 246.37 42.3247C244.454 42.3247 242.717 41.9838 241.159 41.3019C239.611 40.6092 238.442 39.6675 237.652 38.4769C236.872 37.2755 236.483 35.8955 236.483 34.3369H242.198C242.198 35.6033 242.522 36.5395 243.172 37.1456C243.832 37.7409 244.898 38.0386 246.37 38.0386C247.312 38.0386 248.053 37.8383 248.594 37.4379C249.146 37.0266 249.422 36.4529 249.422 35.7169Z" fill="white"/>
</svg>

<svg width="277" height="60" fill="none" xmlns="http://www.w3.org/2000/svg"><path d="M54.763 13.06C49.357 5.172 40.282 0 30 0 13.431 0 0 13.431 0 30c0 2.41.284 4.755.821 7l15.277-15.277a3.75 3.75 0 015.304 0L33.75 34.072l21.013-21.013z" fill="#EF2A82"/><path d="M58.328 20.1L36.402 42.027a3.75 3.75 0 01-5.304 0L18.75 29.678 3.801 44.627C8.933 53.799 18.742 60 30 60c16.569 0 30-13.431 30-30 0-3.469-.589-6.8-1.672-9.9z" fill="#EF2A82"/><path d="M94.212 37.584h-7.809L85.04 42h-6.088l8.67-23.639h5.358L101.712 42h-6.12l-1.38-4.416zm-6.445-4.4h5.082l-2.55-8.199-2.532 8.2zM123.193 42h-5.667l-8.377-14.71V42h-5.699V18.361h5.699l8.361 14.71V18.36h5.683V42zM140.516 37.584h-7.81L131.343 42h-6.089l8.67-23.639h5.358L148.016 42h-6.12l-1.38-4.416zm-6.446-4.4h5.082l-2.549-8.199-2.533 8.2zM155.452 37.617h9.92V42h-15.618V18.361h5.698v19.256zM171.882 28.622l4.351-10.26h6.154l-7.615 15.147V42h-5.78v-8.491l-7.598-15.148h6.121l4.367 10.261zM202.957 22.761h-7.095V42h-5.699V22.761h-6.965v-4.4h19.759v4.4zM211.448 42h-5.682V18.361h5.682V42zM234.535 33.996c-.076 1.645-.52 3.1-1.332 4.367-.812 1.256-1.953 2.23-3.425 2.923-1.462.692-3.134 1.039-5.017 1.039-3.107 0-5.553-1.012-7.339-3.036-1.785-2.024-2.678-4.882-2.678-8.573v-1.169c0-2.316.4-4.34 1.201-6.072.812-1.742 1.975-3.084 3.491-4.026 1.515-.952 3.268-1.429 5.26-1.429 2.868 0 5.174.758 6.916 2.273 1.743 1.505 2.733 3.583 2.971 6.235h-5.682c-.043-1.44-.406-2.473-1.088-3.101-.682-.628-1.721-.942-3.117-.942-1.418 0-2.457.53-3.117 1.591-.66 1.06-1.007 2.755-1.039 5.082v1.672c0 2.522.314 4.324.941 5.407.639 1.082 1.732 1.623 3.28 1.623 1.31 0 2.311-.309 3.003-.925.693-.617 1.061-1.597 1.104-2.939h5.667zM249.422 35.717c0-.834-.297-1.483-.893-1.948-.584-.466-1.618-.947-3.101-1.445-1.482-.498-2.695-.98-3.636-1.445-3.063-1.505-4.595-3.572-4.595-6.202 0-1.31.379-2.462 1.137-3.458.768-1.007 1.85-1.786 3.247-2.338 1.396-.563 2.965-.844 4.708-.844 1.699 0 3.22.303 4.562.909 1.353.606 2.403 1.472 3.15 2.598.747 1.114 1.12 2.392 1.12 3.831h-5.682c0-.963-.298-1.71-.893-2.24-.585-.53-1.38-.796-2.387-.796-1.017 0-1.824.227-2.419.682-.584.444-.877 1.012-.877 1.705 0 .606.325 1.158.974 1.656.65.487 1.792.995 3.426 1.526 1.634.52 2.977 1.082 4.026 1.688 2.555 1.472 3.832 3.502 3.832 6.088 0 2.068-.779 3.691-2.338 4.871-1.559 1.18-3.696 1.77-6.413 1.77-1.916 0-3.653-.341-5.211-1.023-1.548-.693-2.717-1.635-3.507-2.825-.78-1.201-1.169-2.581-1.169-4.14h5.715c0 1.266.324 2.202.974 2.809.66.595 1.726.893 3.198.893.942 0 1.683-.2 2.224-.601.552-.411.828-.985.828-1.721z" fill="#fff"/></svg>
